X:1
T: Clan Munroe
C:J. Scott Skinner
R:Strathspey
Q: 128
K:A
M:4/4
L:1/16
|:a3f e3d cB3 A4|F3A E3A GA3 B4|a3f e3d ce3 A3c|((3d2e2f2) Ge3 cA3 A4|
a3f e3d cB3 A4|((3F2G2A2) E3A GA3 B4|a3f e3d ce3 A3c|((3d2e2f2) Ge3 cA3 A4|
cf3 Af3 c3f a4|B3e G3e Be3 g4|cf3 Af3 c3f a4|ABc2 G3c AF3 F4|
cf3 Af3 c3f a4|B3e G3e Be3 g4|af3 e3d ce3 A2Bc|((3d2e2f2) G3e cA3 A4:|
